X: 13
T: Sir William Hope's Scotch-measure
%R: reel
B: "A Collection of Original Scotch-Tunes", Henry Playford, 1700, ed. p.6 #13
F: http://imslp.org/wiki/A_Collection_of_Original_Scotch_Tunes_(Various)
Z: 2015 John Chambers <jc:trillian.mit.edu>
M: C|
L: 1/8
K: D
% - - - - - - - - - - - - - - - - - - - - - - - - - - - - -
dA |\
F2d2 d2a2 | f3e de cA |\
FA DE Ff ed | c2e2 e2fg |\
agfe cA FA |
dB GB ec Af/g/ |\
af ge fd eA | F2d2 d2 |] fg |\
abag fgfe | f2a2 a2DE |
FA FA BG Bd | c2e2 e2fg |\
af dB ec AF | dB GE cA FD |\
FB Ad ce EA | F2D2 D2 |]
% - - - - - - - - - - - - - - - - - - - - - - - - - - - - -

%%sep 1 1 500
%%sep 1 1 500

